svgs/duotone/file-word.svg

<svg xmlns="http://www.w3.org/2000/svg" viewBox="0 0 384 512"><!--! Font Awesome Pro 6.3.0 by @fontawesome - https://fontawesome.com License - https://fontawesome.com/license (Commercial License) Copyright 2023 Fonticons, Inc. --><defs><style>.fa-secondary{opacity:.4}</style></defs><path class="fa-primary" d="M256 0v128h128L256 0zM304.9 240h-23.37c-5.588 0-10.44 3.859-11.69 9.301L246.2 352L218.4 248.9C216.1 243.6 212.2 240 206.8 240H177.2c-5.426 0-10.18 3.641-11.59 8.883L137.8 352L114.1 249.3C112.9 243.9 108 240 102.5 240H79.08c-7.717 0-13.43 7.18-11.69 14.7l42.46 184C111.1 444.1 115.1 448 121.5 448h29.26c5.428 0 10.18-3.641 11.59-8.883L192 329.1l29.61 109.1C223 444.4 227.8 448 233.2 448h29.26c5.588 0 10.44-3.859 11.69-9.305l42.46-184C318.3 247.2 312.6 240 304.9 240z"/><path class="fa-secondary" d="M256 128V0H48C21.49 0 0 21.49 0 48v416C0 490.5 21.49 512 48 512h288c26.51 0 48-21.49 48-48V128H256zM274.1 438.7C272.9 444.1 268 448 262.5 448h-29.26c-5.426 0-10.18-3.641-11.59-8.883L192 329.1l-29.61 109.1C160.1 444.4 156.2 448 150.8 448H121.5c-5.588 0-10.44-3.859-11.69-9.305l-42.46-184C65.66 247.2 71.37 240 79.08 240h23.37c5.588 0 10.44 3.859 11.69 9.301L137.8 352L165.6 248.9C167 243.6 171.8 240 177.2 240h29.61c5.426 0 10.18 3.641 11.59 8.883L246.2 352l23.7-102.7C271.1 243.9 275.1 240 281.5 240h23.37c7.717 0 13.43 7.18 11.69 14.7L274.1 438.7z"/></svg>

<svg xmlns="http://www.w3.org/2000/svg" viewBox="0 0 384 512"><!-- Font Awesome Pro 6.0.0-alpha2 by @fontawesome - https://fontawesome.com License - https://fontawesome.com/license (Commercial License) --><defs><style>.fa-secondary{opacity:.4}</style></defs><path d="M256 128V0H48C21.49 0 0 21.492 0 48V464C0 490.508 21.49 512 48 512H336C362.51 512 384 490.508 384 464V128H256ZM274.146 438.695C272.891 444.141 268.041 448 262.453 448H233.197C227.771 448 223.02 444.359 221.609 439.117L192 329.141L162.391 439.117C160.98 444.359 156.23 448 150.803 448H121.547C115.959 448 111.109 444.141 109.854 438.695L67.393 254.695C65.656 247.18 71.367 240 79.084 240H102.453C108.041 240 112.891 243.859 114.146 249.301L137.846 352L165.609 248.883C167.02 243.641 171.771 240 177.197 240H206.805C212.23 240 216.98 243.641 218.391 248.883L246.154 352L269.854 249.301C271.109 243.859 275.959 240 281.547 240H304.916C312.633 240 318.344 247.18 316.607 254.695L274.146 438.695Z" class="fa-secondary"/><path d="M255.92 0V128H383.92L255.92 0ZM304.836 240H281.467C275.879 240 271.03 243.859 269.774 249.301L246.075 352L218.311 248.883C216.901 243.641 212.151 240 206.725 240H177.118C171.692 240 166.94 243.641 165.53 248.883L137.766 352L114.067 249.301C112.811 243.859 107.961 240 102.373 240H79.004C71.287 240 65.577 247.18 67.313 254.695L109.774 438.695C111.03 444.141 115.879 448 121.467 448H150.723C156.151 448 160.901 444.359 162.311 439.117L191.92 329.141L221.53 439.117C222.94 444.359 227.692 448 233.118 448H262.373C267.961 448 272.811 444.141 274.067 438.695L316.528 254.695C318.264 247.18 312.553 240 304.836 240Z" class="fa-primary"/></svg>
